NotoEmoji/emoji_u1f4ca.svg

<svg enable-background="new 0 0 128 128" viewBox="0 0 128 128" xmlns="http://www.w3.org/2000/svg"><path d="m4 4h120v120h-120z" fill="#fff"/><g fill="none" stroke="#b0bec5" stroke-miterlimit="10" stroke-width="2"><path d="m124 24.35h-118.43"/><path d="m124 43.67h-118.53"/><path d="m124 62.99h-118.64"/><path d="m124 82.31h-118.74"/><path d="m124 101.64h-118.85"/></g><path d="m38.72 121.91h-16.83v-66.53c0-1.36 1.1-2.46 2.46-2.46h11.91c1.36 0 2.46 1.1 2.46 2.46z" fill="#9ccc65"/><path d="m72.42 121.91h-16.84v-47.07c0-1.36 1.1-2.46 2.46-2.46h11.91c1.36 0 2.46 1.1 2.46 2.46v47.07z" fill="#f44336"/><path d="m103.64 121.91h-11.91c-1.36 0-2.46-1.1-2.46-2.46v-93.59c0-1.36 1.1-2.46 2.46-2.46h11.91c1.36 0 2.46 1.1 2.46 2.46v93.59c0 1.36-1.1 2.46-2.46 2.46z" fill="#0091ea"/><path d="m124 120h-116v-116h-4v120h120z" fill="#b0bec5"/><path d="m122 6v116h-116v-116zm2-2h-120v120h120z" fill="#b0bec5"/></svg>

<?xml version="1.0" encoding="utf-8"?>
<!-- Generator: Adobe Illustrator 25.2.3, SVG Export Plug-In . SVG Version: 6.00 Build 0)  -->
<svg version="1.1" id="Layer_4" xmlns="http://www.w3.org/2000/svg" xmlns:xlink="http://www.w3.org/1999/xlink" x="0px" y="0px"
	 viewBox="0 0 128 128" style="enable-background:new 0 0 128 128;" xml:space="preserve">
<g>
	<rect x="4" y="4" style="fill:#FFFFFF;" width="120" height="120"/>
	<g>
		<line style="fill:none;stroke:#B0BEC5;stroke-width:2;stroke-miterlimit:10;" x1="124" y1="24.35" x2="5.57" y2="24.35"/>
		<line style="fill:none;stroke:#B0BEC5;stroke-width:2;stroke-miterlimit:10;" x1="124" y1="43.67" x2="5.47" y2="43.67"/>
		<line style="fill:none;stroke:#B0BEC5;stroke-width:2;stroke-miterlimit:10;" x1="124" y1="62.99" x2="5.36" y2="62.99"/>
		<line style="fill:none;stroke:#B0BEC5;stroke-width:2;stroke-miterlimit:10;" x1="124" y1="82.31" x2="5.26" y2="82.31"/>
		<line style="fill:none;stroke:#B0BEC5;stroke-width:2;stroke-miterlimit:10;" x1="124" y1="101.64" x2="5.15" y2="101.64"/>
	</g>
	<path style="fill:#9CCC65;" d="M38.72,121.91H21.89V55.38c0-1.36,1.1-2.46,2.46-2.46h11.91c1.36,0,2.46,1.1,2.46,2.46V121.91z"/>
	<path style="fill:#F44336;" d="M72.42,121.91H55.58V74.84c0-1.36,1.1-2.46,2.46-2.46h11.91c1.36,0,2.46,1.1,2.46,2.46V121.91z"/>
	<path style="fill:#0091EA;" d="M103.64,121.91H91.73c-1.36,0-2.46-1.1-2.46-2.46V25.86c0-1.36,1.1-2.46,2.46-2.46h11.91
		c1.36,0,2.46,1.1,2.46,2.46v93.59C106.1,120.81,105,121.91,103.64,121.91z"/>
	<polygon style="fill:#B0BEC5;" points="124,120 8,120 8,4 4,4 4,124 124,124 	"/>
	<g>
		<path style="fill:#B0BEC5;" d="M122,6v116H6V6H122 M124,4H4v120h120V4L124,4z"/>
	</g>
</g>
</svg>
